!!!!SEGMENT: pl-gd--ee-2628--007-009_stabile-annibale--sacrarum-modulationum-pater-abraham.krn
!!!cenid: 15xx:1098
!!!COM: Stabile, Annibale
!!!COM-rismID: pe30009662
!!!CDT: ~1535-1595/04
!!!CNT: Italian
!!!GTL: Sacrarum modulationum
!!!OTL: Pater Abraham
!!!OMV: 009
!!!PDT: 1585
!!!AGN:
!!!YEC: Copyright 2022 Narodowy Instytut Fryderyka Chopina (https://polishscores.org)
!!!YEM: License CC-BY-4.0 (https://creativecommons.org/licenses/by/4.0)
!!!SMS-siglum: PL-GD
!!!SMS-shelfmark: Ee 2628
!!!SMS-shelfwork: 007-009 G
!!!SMS-variant:
!!!SMS-altvar:
!!!NIFC-rismSourceID: 1001203361
!!!NIFC-rismChildID: 990060529
!!!NIFC-islandoraID: pl-gd:66139
!!!URL-pdf-islandora: https://repozytorium.nifc.pl/islandora/object/pl-gd%3A66139/datastream/PDF/view
!!!URL-scan: https://polish.musicsources.pl/pl/lokalizacje/galeria/klocki-introligatorskie/673 @EN{Scan on Polish Music Sources Website} @PL{Skany w portalu Dziedzictwo Muzyki Polskiej w otwartym dostępie}
!!!IIIF:
!!!ONB-nifc: UWAGA: Cantus: s. 102-113, Tenore: s. 258-269, Basso: s. 414-425, Quinto: s. 736-747, Sextus: s. 624-632. Dla głosu Alto proszę skorzystać z https://pbc.gda.pl/dlibra/publication/87583/edition/79412/content, s. 25-48. Uwaga: utwory podzielone wg spisu treści dostępnych na końcu ksiąg – proszę sprawdzać sąsiednie tytuły i zwracać uwagę na liczbę głosów. Głosy Quinto i Sextus proszę umieszczać wg ambitusu (może się różnić w zależności od utworu).
!!!AIN: 1 alto 1 bass 1 soprn 1 tenor 1 vox
!!!key: F
**kern	**text	**kern	**text	**kern	**kern	**text	**kern	**text	**kern	**text
*part6	*	*part5	*	*part4	*part3	*	*part2	*	*part1	*
*staff6	*	*staff5	*	*staff4	*staff3	*	*staff2	*	*staff1	*
*I"BASSVS	*	*I"TENOR	*	*I"SEXTVS	*I"QVINTVS	*	*I"ALTVS	*	*I"CANTVS	*
*I'B	*	*I'T	*	*I'V 6	*I'V 5	*	*I'A	*	*I'S	*
*ICvox	*	*ICvox	*	*	*ICvox	*	*ICvox	*	*ICvox	*
*Ibass	*	*Itenor	*	*	*Ivox	*	*Ialto	*	*Isoprn	*
*clefF3	*	*clefC3	*	*clefC3	*clefC3	*	*clefC2	*	*clefG2	*
*k[b-]	*	*k[b-]	*	*k[b-]	*k[b-]	*	*k[b-]	*	*k[b-]	*
*F:	*	*F:	*	*F:	*F:	*	*F:	*	*F:	*
*M2/1	*	*M2/1	*	*M2/1	*M2/1	*	*M2/1	*	*M2/1	*
*met(C|)	*	*met(C|)	*	*met(C|)	*met(C|)	*	*met(C|)	*	*met(C|)	*
=1-	=1-	=1-	=1-	=1-	=1-	=1-	=1-	=1-	=1-	=1-
!	!	!	!	!	!LO:TX:b:i:t=PAter Abraham.	!	!LO:TX:b:i:t=PAter Abraham.	!	!	!
!	!	!	!	!	!	!	!LO:TX:t=P:problem:podwójnie zapisany znak przykluczowy: B- b-	!	!	!
00r	.	0c	PA-	0ryy	00r	.	00r	.	00r	.
=2-	=2-	=2-	=2-	=2-	=2-	=2-	=2-	=2-	=2-	=2-
.	.	1d	-ter	0ryy	.	.	.	.	.	.
.	.	2.e\	A-	.	.	.	.	.	.	.
.	.	4e\	-bra-	.	.	.	.	.	.	.
=3-	=3-	=3-	=3-	=3-	=3-	=3-	=3-	=3-	=3-	=3-
00r	.	2c/	-ham	0ryy	00r	.	1r	.	0cc	PA-
.	.	1f	Mi-	.	.	.	.	.	.	.
.	.	.	.	.	.	.	2r	.	.	.
.	.	2e\	-ſe-	.	.	.	1cc\	Mi-	.	.
=4-	=4-	=4-	=4-	=4-	=4-	=4-	=4-	=4-	=4-	=4-
.	.	2d\	-re-	0ryy	.	.	.	.	1dd	-ter
.	.	2d\	-re	.	.	.	2b-\	-ſe-	.	.
.	.	1c	me-	.	.	.	2a\	-re-	2.ee\	A-
.	.	.	.	.	.	.	2g\	-re	.	.
.	.	.	.	.	.	.	.	.	4ee\	-bra-
=5-	=5-	=5-	=5-	=5-	=5-	=5-	=5-	=5-	=5-	=5-
00r	.	2A/	-i	0ryy	00r	.	1a	me-	2cc\	-ham
*	*	*	*ij	*	*	*	*	*	*	*
.	.	1d	Mi-	.	.	.	.	.	1ff	Mi-
.	.	.	.	.	.	.	1a	-i	.	.
.	.	2c/	-ſe-	.	.	.	.	.	2ee\	-ſe-
=6-	=6-	=6-	=6-	=6-	=6-	=6-	=6-	=6-	=6-	=6-
.	.	2B-/	-re-	0ryy	.	.	2r	.	2dd\	-re-
.	.	2A/	-re	.	.	.	1f	Pa-	2cc\	-re
*	*	*	*	*	*	*	*	*	*lig	*
.	.	1B-	me-	.	.	.	.	.	1dd	me-
.	.	.	.	.	.	.	2g\	-ter	.	.
=7-	=7-	=7-	=7-	=7-	=7-	=7-	=7-	=7-	=7-	=7-
0F	PA-	1f	-i	0ryy	1r	.	2.a\	A-	1cc	.
.	.	.	.	.	.	.	4a\	-bra-	.	.
*	*	*	*Xij	*	*	*	*	*	*Xlig	*
*	*	*	*	*	*	*	*	*	*lig	*
.	.	1r	.	.	2r	.	2f\	-ham	1a	-i
.	.	.	.	.	2f\	Mi-	1cc\	Mi-	.	.
*	*	*custos:g	*	*	*	*	*	*	*	*
!	!	!LO:LB:g=original	!	!	!	!	!	!	!	!
=8-	=8-	=8-	=8-	=8-	=8-	=8-	=8-	=8-	=8-	=8-
1G	-ter	2r	.	0ryy	2e\	-ſe-	.	.	1g	.
.	.	1g	Mi-	.	2d\	-re-	2b-\	-ſe-	.	.
*	*	*	*	*	*	*	*custos:a	*	*Xlig	*
!	!	!	!	!	!	!	!LO:LB:g=original	!	!	!
1.A	A-	.	.	.	2c/	-re	1.a	-re-	0r	.
.	.	2f\	-ſe-	.	2.d\	me-	.	.	.	.
=9-	=9-	=9-	=9-	=9-	=9-	=9-	=9-	=9-	=9-	=9-
.	.	2e\	-re-	0ryy	.	.	.	.	.	.
.	.	.	.	.	4c#X/	.	.	.	.	.
2A\	-bra-	2e\	-re	.	2c#/	.	2a\	-re	.	.
*	*	*	*	*	*lig	*	*	*	*	*ij
2D/	-ham	2f\	me-	.	1d	-i	1a	me-	2r	.
1d\	Mi-	2d\	-i	.	.	.	.	.	1ff\	Mi-
=10-	=10-	=10-	=10-	=10-	=10-	=10-	=10-	=10-	=10-	=10-
.	.	0r	.	0ryy	1A	.	1a	-i	.	.
2c\	-ſe-	.	.	.	.	.	.	.	2ee\	-ſe-
*	*	*	*	*	*Xlig	*	*	*	*	*
2B-\	-re-	.	.	.	0r	.	2r	.	2dd\	-re-
2A\	-re	.	.	.	.	.	2a\	et	2cc\	-re
*	*	*	*	*	*	*	*	*	*custos:dd	*
!	!	!	!	!	!	!	!	!	!LO:LB:g=original	!
=11-	=11-	=11-	=11-	=11-	=11-	=11-	=11-	=11-	=11-	=11-
1B-	me-	2r	.	0ryy	.	.	2f\	mit-	1.dd	me-
.	.	2d\	et	.	.	.	2g\	-te	.	.
1A	-i	2f\	mit-	.	2r	.	2.a\	La-	.	.
.	.	1e\	-te	.	2A/	et	.	.	2cc\	-i
.	.	.	.	.	.	.	4a\	-za-	.	.
*	*	*	*	*	*	*	*	*	*	*Xij
=12-	=12-	=12-	=12-	=12-	=12-	=12-	=12-	=12-	=12-	=12-
1r	.	.	.	0ryy	2F/	mit-	2a\	-rum	2r	.
.	.	2.d\	La-	.	2G/	-te	2b-\	vt	2dd\	et
*	*	*	*	*	*custos:A	*	*	*	*	*
!	!	!	!	!	!LO:LB:g=original	!	!	!	!	!
2r	.	.	.	.	2.A/	La-	2a\	in-	2ff\	mit-
.	.	4d\	-za-	.	.	.	.	.	.	.
2A\	et	2c/	-rum	.	.	.	2.a\	-tin-	1ee\	-te
.	.	.	.	.	4A/	-za-	.	.	.	.
=13-	=13-	=13-	=13-	=13-	=13-	=13-	=13-	=13-	=13-	=13-
2c\	mit-	1r	.	0ryy	2A/	-rum	.	.	.	.
.	.	.	.	.	.	.	8g\	.	.	.
.	.	.	.	.	.	.	8f\	.	.	.
*	*	*	*	*	*	*ij	*	*	*	*
2B-\	-te	.	.	.	2d\	et	2g\	.	2.dd\	La-
*custos:A	*	*	*ij	*	*	*	*	*	*	*
!LO:LB:g=original	!	!	!	!	!	!	!	!	!	!
2.A\	La-	2r	.	.	2f\	mit-	1a	-gat	.	.
.	.	.	.	.	.	.	.	.	4dd\	-za-
.	.	2A/	et	.	2e\	-te	.	.	2cc\	-rum
4A\	-za-	.	.	.	.	.	.	.	.	.
=14-	=14-	=14-	=14-	=14-	=14-	=14-	=14-	=14-	=14-	=14-
2D/	-rum	2F/	mit-	0ryy	2.d\	La-	00r	.	2a/	vt
1d	vt	2G/	-te	.	.	.	.	.	2b-/	in-
.	.	.	.	.	4e\	.	.	.	.	.
*	*	*custos:A	*	*	*	*	*	*	*	*
!	!	!LO:LB:g=original	!	!	!	!	!	!	!	!
.	.	2.A/	La-	.	2f\	.	.	.	1a	-tin-
2c#X\	in-	.	.	.	2e\	-za-	.	.	.	.
.	.	4A/	-za-	.	.	.	.	.	.	.
=15-	=15-	=15-	=15-	=15-	=15-	=15-	=15-	=15-	=15-	=15-
1d	-tin-	2B-/	-rum	0ryy	2d\	-rum	.	.	2f/	-gat
*	*	*	*Xij	*	*	*Xij	*	*	*	*
.	.	1G	vt	.	1g	vt	.	.	1b-	vt
1G	-gat	.	.	.	.	.	.	.	.	.
.	.	2d\	in-	.	2g\	in-	.	.	2b-/	in-
=16-	=16-	=16-	=16-	=16-	=16-	=16-	=16-	=16-	=16-	=16-
2r	.	1e-X	-tin-	0ryy	1cny	-tin-	0r	.	1cc	-tin-
2cny\	Ex-	.	.	.	.	.	.	.	.	.
2B-\	-tre-	1d	-gat	.	2G/	-gat	.	.	0dd	-gat
2G\	-mum	.	.	.	2g\	Ex-	.	.	.	.
=17-	=17-	=17-	=17-	=17-	=17-	=17-	=17-	=17-	=17-	=17-
2.B-\	di-	0r	.	0ryy	2f\	-tre-	1r	.	.	.
.	.	.	.	.	2d\	-mum	.	.	.	.
4B-\	-gi-	.	.	.	.	.	.	.	.	.
*	*	*	*	*	*custos:f	*	*custos:cc	*	*	*
!	!	!	!	!	!LO:LB:g=original	!	!LO:LB:g=original	!	!	!
2A\	-ti	.	.	.	2.f\	di-	2r	.	0r	.
2F/	ſu-	.	.	.	.	.	2cc\	Ex-	.	.
.	.	.	.	.	4f\	-gi-	.	.	.	.
*	*	*	*	*	*	*	*	*	*custos:gg	*
!	!	!	!	!	!	!	!	!	!LO:LB:g=original	!
=18-	=18-	=18-	=18-	=18-	=18-	=18-	=18-	=18-	=18-	=18-
2G\	-i	2r	.	0ryy	2d\	-ti	2b-\	-tre-	.	.
2C/	in	2c/	Ex-	.	2e\	ſu-	2g\	-mum	.	.
*custos:G	*	*	*	*	*	*	*	*	*	*
!LO:LB:g=original	!	!	!	!	!	!	!	!	!	!
1G	a-	2B-/	-tre-	.	1.d	-i	2.b-\	di-	2r	.
.	.	2G/	-mum	.	.	.	.	.	2gg\	Ex-
.	.	.	.	.	.	.	4b-\	-gi-	.	.
=19-	=19-	=19-	=19-	=19-	=19-	=19-	=19-	=19-	=19-	=19-
0D	-quam	2.A/	di-	0ryy	.	.	2a\	-ti	2ff\	-tre-
.	.	.	.	.	2d\	in	2f\	ſu-	2dd\	-mum
.	.	4A/	-gi-	.	.	.	.	.	.	.
.	.	2A/	-ti	.	1d	a-	2a\	-i	2.ff\	di-
.	.	2d\	ſu-	.	.	.	2b-\	in	.	.
.	.	.	.	.	.	.	.	.	4ff\	-gi-
=20-	=20-	=20-	=20-	=20-	=20-	=20-	=20-	=20-	=20-	=20-
0r	.	2c/	-i	0ryy	1A	-quam	4cc\	a-	2ee\	-ti
.	.	.	.	.	.	.	4b-\	.	.	.
.	.	2eny\	in	.	.	.	4a\	.	1cc	ſu-
.	.	.	.	.	.	.	4g\	.	.	.
.	.	1f	a-	.	1r	.	2.a\	.	.	.
.	.	.	.	.	.	.	.	.	2a/	-i
.	.	.	.	.	.	.	8g\	.	.	.
.	.	.	.	.	.	.	8f\	.	.	.
=21-	=21-	=21-	=21-	=21-	=21-	=21-	=21-	=21-	=21-	=21-
2r	.	1c	-quam	0ryy	2r	.	2e/	.	2g/	in
1F	Vt	.	.	.	2c/	Vt	1a	.	1cc	a-
.	.	1r	.	.	2d\	re-	.	.	.	.
!	!	!	!	!	!	!	!	!	!LO:N:acc=#	!
2G\	re-	.	.	.	2.e\	-fri-	2g\	.	2bn/	.
=22-	=22-	=22-	=22-	=22-	=22-	=22-	=22-	=22-	=22-	=22-
2.A\	-fri-	00r	.	0ryy	.	.	1e	-quam	1cc	-quam
.	.	.	.	.	4e\	-ge-	.	.	.	.
.	.	.	.	.	2c/	-ret	.	.	.	.
4A\	-ge-	.	.	.	.	.	.	.	.	.
2F/	-ret	.	.	.	2f\	lin-	1r	.	2r	.
1c\	lin-	.	.	.	2e\	-guam	.	.	2cc\	Vt
=23-	=23-	=23-	=23-	=23-	=23-	=23-	=23-	=23-	=23-	=23-
.	.	.	.	0ryy	1d	me-	2r	.	1dd	re-
!LO:N:acc=#	!	!	!	!	!	!	!	!	!	!
2Bn\	-guam	.	.	.	.	.	1g	Vt	.	.
1c	me-	.	.	.	2c/	-am	.	.	2.ee\	-fri-
.	.	.	.	.	1c\	lin-	2g\	re-	.	.
.	.	.	.	.	.	.	.	.	4ee\	-ge-
=24-	=24-	=24-	=24-	=24-	=24-	=24-	=24-	=24-	=24-	=24-
1F	-am	1r	.	0ryy	.	.	2.a\	-fri-	2cc\	-ret
.	.	.	.	.	2A/	-guã(m)	.	.	1ff	lin-
.	.	.	.	.	.	.	4a\	-ge-	.	.
1r	.	2r	.	.	2d\	me-	2f\	-ret	.	.
.	.	2c/	Vt	.	2c/	.	1a\	lin-	2ee\	-guam
=25-	=25-	=25-	=25-	=25-	=25-	=25-	=25-	=25-	=25-	=25-
*	*	*	*	*	*lig	*	*	*	*	*
0r	.	1d	re-	0ryy	1B-	.	.	.	1dd	me-
.	.	.	.	.	.	.	2g\	-guam	.	.
*	*	*	*	*	*	*	*custos:a	*	*	*
!	!	!	!	!	!	!	!LO:LB:g=original	!	!	!
*	*	*	*	*	*	*	*lig	*	*	*
!	!	!	!	!	!	!	!LO:LB:g=original	!	!	!
.	.	2.e\	-fri-	.	1.A	.	0a	me-	0.cc	-am
.	.	4e\	-ge-	.	.	.	.	.	.	.
*	*	*custos:c	*	*	*Xlig	*	*	*	*	*
!	!	!LO:LB:g=original	!	!	!	!	!	!	!	!
=26-	=26-	=26-	=26-	=26-	=26-	=26-	=26-	=26-	=26-	=26-
1r	.	2c/	-ret	0ryy	.	.	.	.	.	.
.	.	1f	lin-	.	4G/	.	.	.	.	.
.	.	.	.	.	4F/	.	.	.	.	.
2r	.	.	.	.	1c	.	0g	.	.	.
1c\	Qui-	2e\	-guam	.	.	.	.	.	.	.
*	*	*	*	*	*	*	*Xlig	*	*	*
=27-	=27-	=27-	=27-	=27-	=27-	=27-	=27-	=27-	=27-	=27-
.	.	1d	me-	0ryy	2G/	-am	.	.	0r	.
2B-y\	-a	.	.	.	2g\	Qui-	.	.	.	.
2.A\	cru-	0c	-am	.	2f\	-a	1a	-am	.	.
.	.	.	.	.	2.e\	cru-	.	.	.	.
4A\	-ci-	.	.	.	.	.	.	.	.	.
=28-	=28-	=28-	=28-	=28-	=28-	=28-	=28-	=28-	=28-	=28-
2A\	-or	.	.	0ryy	.	.	2r	.	1r	.
.	.	.	.	.	4e\	-ci-	.	.	.	.
1A	in	.	.	.	2e\	-or	1cc	Qui-	.	.
*	*	*	*	*	*	*	*	*	*custos:gg	*
!	!	!LO:TX:t=P:problem:Verovio nie wyświetla pauzy	!	!	!	!	!	!	!LO:LB:g=original	!
.	.	1r	.	.	2c/	in	.	.	2r	.
2G\	hac	.	.	.	1d\	hac	2b-\	-a	2gg\	Qui-
=29-	=29-	=29-	=29-	=29-	=29-	=29-	=29-	=29-	=29-	=29-
1A	flam-	0r	.	0ryy	.	.	2.a\	cru-	2ff\	-a
.	.	.	.	.	1c	flam-	.	.	2.ee\	cru-
.	.	.	.	.	.	.	4a\	-ci-	.	.
1A	-ma	.	.	.	.	.	2a\	-or	.	.
.	.	.	.	.	.	.	.	.	4ee\	-ci-
.	.	.	.	.	2c/	-ma	1a\	in	2ee\	-or
*custos:F	*	*	*	*	*	*	*	*	*	*
!LO:LB:g=original	!	!	!	!	!	!	!	!	!	!
=30-	=30-	=30-	=30-	=30-	=30-	=30-	=30-	=30-	=30-	=30-
00r	.	2r	.	0ryy	2A/	in	.	.	2cc\	in
.	.	2g\	Qui-	.	2G/	hac	2b-\	hac	1dd	hac
.	.	2f\	-a	.	1A	flam-	1a	flam-	.	.
.	.	2.e\	cru-	.	.	.	.	.	4cc\	.
.	.	.	.	.	.	.	.	.	4b-y/	.
=31-	=31-	=31-	=31-	=31-	=31-	=31-	=31-	=31-	=31-	=31-
.	.	.	.	0ryy	1A	-ma	2a\	-ma	2.cc\	.
.	.	4e\	-ci-	.	.	.	.	.	.	.
.	.	2e\	-or	.	.	.	2a\	in	.	.
.	.	.	.	.	.	.	.	.	4b-/	.
.	.	2f\	in	.	1r	.	2d/	hac	2a/	.
.	.	2d\	hac	.	.	.	2.f\	flam-	2f/	.
=32-	=32-	=32-	=32-	=32-	=32-	=32-	=32-	=32-	=32-	=32-
0r	.	1c	flam-	0ryy	0r	.	.	.	1g	flam-
.	.	.	.	.	.	.	8e/	.	.	.
.	.	.	.	.	.	.	8d/	.	.	.
.	.	.	.	.	.	.	2e/	.	.	.
.	.	1F	-ma	.	.	.	1f	-ma	1a	-ma
=33-	=33-	=33-	=33-	=33-	=33-	=33-	=33-	=33-	=33-	=33-
0F	Et	0c	Et	0ryy	2r	.	0a	Et	0ff	Et
.	.	.	.	.	2f\	Et	.	.	.	.
.	.	.	.	.	2f\	di-	.	.	.	.
.	.	.	.	.	2F/	-xit	.	.	.	.
=34-	=34-	=34-	=34-	=34-	=34-	=34-	=34-	=34-	=34-	=34-
1.C	di-	1.c	di-	0ryy	1G	il-	1.g	di-	1.ee	di-
.	.	.	.	.	2G/	-li	.	.	.	.
2C/	-xit	2c/	-xit	.	1c\	A-	2g\	-xit	2ee\	-xit
=35-	=35-	=35-	=35-	=35-	=35-	=35-	=35-	=35-	=35-	=35-
1G	il-	1d	il-	0ryy	.	.	1g	il-	1dd	il-
.	.	.	.	.	2B-/	-bra-	.	.	.	.
2D/	-li	1d	-li	.	2A/	-ham	2f\	-li	1dd	-li
*	*	*	*	*	*custos:d	*ij	*	*	*	*
!	!	!	!	!	!LO:LB:g=original	!	!	!	!	!
1B-\	A-	.	.	.	2d\	Et	2.f\	A-	.	.
=36-	=36-	=36-	=36-	=36-	=36-	=36-	=36-	=36-	=36-	=36-
.	.	2.d\	A-	0ryy	2f\	di-	.	.	00r	.
.	.	.	.	.	.	.	4e/	.	.	.
2B-\	-bra-	.	.	.	2g\	-xit	1d	.	.	.
.	.	4e\	.	.	.	.	.	.	.	.
*	*	*custos:f	*	*	*	*	*	*	*	*
!	!	!LO:LB:g=original	!	!	!	!	!	!	!	!
1A	-ham	2f\	.	.	2.a\	il-	.	.	.	.
*	*	*	*	*	*	*	*custos:c	*	*	*
!	!	!	!	!	!	!	!LO:LB:g=original	!	!	!
.	.	2e\	.	.	.	.	2c/	-bra-	.	.
.	.	.	.	.	4a\	-li	.	.	.	.
=37-	=37-	=37-	=37-	=37-	=37-	=37-	=37-	=37-	=37-	=37-
2r	.	4d\	.	0ryy	2f#X\	A-	2d/	-ham	.	.
.	.	4c/	.	.	.	.	.	.	.	.
1G	A-	4B-/	.	.	2g\	-bra-	2.b-\	A-	.	.
.	.	4A/	.	.	.	.	.	.	.	.
*	*	*lig	*	*	*	*	*	*	*	*
.	.	1B-	.	.	0d	-ham	.	.	.	.
.	.	.	.	.	.	.	4a\	.	.	.
2G\	-bra-	.	.	.	.	.	1g\	.	.	.
=38-	=38-	=38-	=38-	=38-	=38-	=38-	=38-	=38-	=38-	=38-
*	*	*col	*	*	*	*Xij	*	*	*	*
1D	-ham	2.A/	.	0ryy	.	.	.	.	2r	.
.	.	.	.	.	.	.	2f#X\	-bra-	1dd	Fi-
*	*	*Xlig	*	*	*	*	*	*	*	*
.	.	4A/	-bra-	.	.	.	.	.	.	.
*	*	*Xcol	*	*	*	*	*	*	*	*
1r	.	1G	-ham	.	1r	.	2g\	-hã(m)	.	.
.	.	.	.	.	.	.	1g\	Fi-	2b-/	-li
*	*	*	*	*	*	*	*	*	*custos:g	*
!	!	!	!	!	!	!	!	!	!LO:LB:g=original	!
=39-	=39-	=39-	=39-	=39-	=39-	=39-	=39-	=39-	=39-	=39-
00r	.	00r	.	0ryy	0r	.	.	.	2g/	re-
.	.	.	.	.	.	.	2fny\	-li	2a/	-cor-
.	.	.	.	.	.	.	2d/	re-	1b-	-da-
.	.	.	.	.	.	.	2e/	-cor-	.	.
=40-	=40-	=40-	=40-	=40-	=40-	=40-	=40-	=40-	=40-	=40-
.	.	.	.	0ryy	00r	.	1f	-da-	2a/	-re
.	.	.	.	.	.	.	.	.	1ff	qui-
.	.	.	.	.	.	.	2d/	-re	.	.
.	.	.	.	.	.	.	1b-\	qui-	2ff\	-a
=41-	=41-	=41-	=41-	=41-	=41-	=41-	=41-	=41-	=41-	=41-
00r	.	00r	.	0ryy	.	.	.	.	2dd\	re-
.	.	.	.	.	.	.	2b-\	-a	2dd\	-ce-
.	.	.	.	.	.	.	2a\	re-	1ee	-piſ-
.	.	.	.	.	.	.	2g\	-ce-	.	.
=42-	=42-	=42-	=42-	=42-	=42-	=42-	=42-	=42-	=42-	=42-
.	.	.	.	0ryy	1r	.	1a	-piſ-	2cc\	-ti
.	.	.	.	.	.	.	.	.	2cc\	bo-
.	.	.	.	.	2r	.	2f\	-ti	2cc\	-na
.	.	.	.	.	1d\	Fi-	2f\	bo-	2a/	in
=43-	=43-	=43-	=43-	=43-	=43-	=43-	=43-	=43-	=43-	=43-
2r	.	0r	.	0ryy	.	.	2f\	-na	2.dd\	vi-
1G	Fi-	.	.	.	2B-/	-li	2d/	in	.	.
.	.	.	.	.	.	.	.	.	4cc\	.
.	.	.	.	.	2G/	re-	2e/	vi-	2b-/	.
2F/	-li	.	.	.	2A/	-cor-	1f\	-ta	1a/	-ta
=44-	=44-	=44-	=44-	=44-	=44-	=44-	=44-	=44-	=44-	=44-
2D/	re-	1r	.	0ryy	1B-	-da-	.	.	.	.
2E/	-cor-	.	.	.	.	.	4e/	.	2g/	tu-
.	.	.	.	.	.	.	4d/	.	.	.
1F	-da-	2r	.	.	2A/	-re	2c/	.	1a	-a
.	.	1a\	Fi-	.	2c/	re-	1f\	tu-	.	.
=45-	=45-	=45-	=45-	=45-	=45-	=45-	=45-	=45-	=45-	=45-
2D/	-re	.	.	0ryy	2.d\	-cor-	.	.	2r	.
1B-	re-	2f\	-li	.	.	.	2d/	-a	1dd	Fi-
.	.	.	.	.	4e\	.	.	.	.	.
*	*	*	*	*	*	*	*custos:f	*	*	*
!	!	!	!	!	!	!	!LO:LB:g=original	!	!	!
.	.	2d\	re-	.	4fny\	.	1r	.	.	.
.	.	.	.	.	4d\	.	.	.	.	.
2c\	-cor-	2e\	-cor-	.	1g\	.	.	.	2cc\	-li
*custos:d	*	*	*	*	*	*	*	*	*	*
!LO:LB:g=original	!	!	!	!	!	!	!	!	!	!
=46-	=46-	=46-	=46-	=46-	=46-	=46-	=46-	=46-	=46-	=46-
*lig	*	*	*	*	*	*	*	*	*	*
1d	-da-	1.f	-da-	0ryy	.	.	00r	.	2a/	re-
.	.	.	.	.	2f\	.	.	.	2b-/	-cor-
*	*	*	*	*	*lig	*	*	*	*	*
1c	.	.	.	.	1g	-da-	.	.	1cc	-da-
.	.	2e\	-re	.	.	.	.	.	.	.
*Xlig	*	*	*	*	*	*	*	*	*custos:cc	*
!	!	!	!	!	!	!	!	!	!LO:LB:g=original	!
=47-	=47-	=47-	=47-	=47-	=47-	=47-	=47-	=47-	=47-	=47-
1F	-re	2r	.	0ryy	1a	.	.	.	1cc	-re
.	.	1f	qui-	.	.	.	.	.	.	.
*	*	*	*	*	*custos:d	*	*	*	*	*
!	!	!	!	!	!LO:LB:g=original	!	!	!	!	!
*	*	*	*	*	*Xlig	*	*	*	*	*
2r	.	.	.	.	1d	-re	.	.	1r	.
1B-\	qui-	2f\	-a	.	.	.	.	.	.	.
=48-	=48-	=48-	=48-	=48-	=48-	=48-	=48-	=48-	=48-	=48-
.	.	2d\	re-	0ryy	00r	.	0r	.	0r	.
2B-\	-a	2d\	-ce-	.	.	.	.	.	.	.
2A\	re-	1e	-piſ-	.	.	.	.	.	.	.
2G\	-ce-	.	.	.	.	.	.	.	.	.
=49-	=49-	=49-	=49-	=49-	=49-	=49-	=49-	=49-	=49-	=49-
1A	-piſ-	1c	-ti	0ryy	.	.	1r	.	2r	.
.	.	.	.	.	.	.	.	.	2cc\	bo-
*	*	*custos:d	*	*	*	*	*	*	*	*
!	!	!LO:LB:g=original	!	!	!	!	!	!	!	!
2F/	-ti	1r	.	.	.	.	2r	.	2cc\	-na
2F/	bo-	.	.	.	.	.	2f\	bo-	2a/	in
=50-	=50-	=50-	=50-	=50-	=50-	=50-	=50-	=50-	=50-	=50-
2D/	-na	2r	.	0ryy	0r	.	2f\	-na	2.dd\	vi-
2B-\	in	2d\	in	.	.	.	2d/	in	.	.
.	.	.	.	.	.	.	.	.	4cc\	.
1G	vi-	2e-X\	vi-	.	.	.	2.g\	vi-	2b-/	.
.	.	2.d\	-ta	.	.	.	.	.	2b-/	-ta
.	.	.	.	.	.	.	4f\	.	.	.
=51-	=51-	=51-	=51-	=51-	=51-	=51-	=51-	=51-	=51-	=51-
2A\	.	.	.	0ryy	1r	.	2e/	.	1a	tu-
.	.	4c/	.	.	.	.	.	.	.	.
2F/	-ta	1c	.	.	.	.	2f\	-ta	.	.
1G	tu-	.	.	.	2r	.	1d	tu-	0.g	-a
!	!	!LO:N:acc=#	!	!	!	!	!	!	!	!
.	.	2Bn/	tu-	.	2g\	et	.	.	.	.
=52-	=52-	=52-	=52-	=52-	=52-	=52-	=52-	=52-	=52-	=52-
1C	-a	1c	-a	0ryy	2.e\	La-	2c/	-a	.	.
.	.	.	.	.	.	.	2g\	et	.	.
.	.	.	.	.	4e\	-za-	.	.	.	.
2r	.	00r	.	.	2c/	-rus	2.e/	La-	.	.
2c\	et	.	.	.	2g\	ſi-	.	.	.	.
.	.	.	.	.	.	.	4e/	-za-	.	.
=53-	=53-	=53-	=53-	=53-	=53-	=53-	=53-	=53-	=53-	=53-
2.A\	La-	.	.	0ryy	2f\	-mi-	1c	-rus	2r	.
.	.	.	.	.	2e\	-li-	.	.	2cc\	et
4A\	-za-	.	.	.	.	.	.	.	.	.
1F	-rus	.	.	.	2f\	-ter	2r	.	2.a/	La-
.	.	.	.	.	2c/	et	2cc\	et	.	.
.	.	.	.	.	.	.	.	.	4a/	-za-
=54-	=54-	=54-	=54-	=54-	=54-	=54-	=54-	=54-	=54-	=54-
2r	.	.	.	0ryy	2d\	La-	2.a\	La-	1f	-rus
*	*ij	*	*	*	*	*	*	*	*	*
2F/	et	.	.	.	2c/	-za-	.	.	.	.
.	.	.	.	.	.	.	4a\	-za-	.	.
*custos:D	*	*	*	*	*	*	*	*	*	*ij
!LO:LB:g=original	!	!	!	!	!	!	!	!	!	!
2.D/	La-	0r	.	.	2d\	-rus	0f	-rus	2r	.
.	.	.	.	.	2.d\	ſi-	.	.	2ff\	et
4D/	-za-	.	.	.	.	.	.	.	.	.
=55-	=55-	=55-	=55-	=55-	=55-	=55-	=55-	=55-	=55-	=55-
1BB-	-rus	.	.	0ryy	.	.	.	.	2.dd\	La-
.	.	.	.	.	4c/	.	.	.	.	.
*	*Xij	*	*	*	*	*	*	*	*	*
.	.	.	.	.	1B-	.	.	.	.	.
.	.	.	.	.	.	.	.	.	4dd\	-za-
2F/	ſi-	2r	.	.	.	.	2f\	ſi-	0cc	-rus
2.F/	-mi-	2c/	et	.	4A/	.	2.f\	-mi-	.	.
.	.	.	.	.	4G/	.	.	.	.	.
*	*	*	*	*	*	*	*	*	*	*Xij
=56-	=56-	=56-	=56-	=56-	=56-	=56-	=56-	=56-	=56-	=56-
.	.	2.A/	La-	0ryy	2F/	.	.	.	.	.
4F/	-li-	.	.	.	.	.	4f\	-li-	.	.
2C/	-ter	.	.	.	1c	.	2e/	-ter	.	.
.	.	4A/	-za-	.	.	.	.	.	.	.
1D	ma-	1F	-rus	.	.	.	2f\	ma-	2r	.
.	.	.	.	.	2B-/	-mi-	2d/	-la	1ff\	ſi-
*	*	*	*	*	*	*	*custos:g	*	*	*
!	!	!	!	!	!	!	!LO:LB:g=original	!	!	!
=57-	=57-	=57-	=57-	=57-	=57-	=57-	=57-	=57-	=57-	=57-
1C	-la	2c/	ſi-	0ryy	2A/	-li-	2r	.	.	.
.	.	2.c/	-mi-	.	2G/	-ter	2g\	ſi-	2.ee\	-mi-
*	*	*	*	*	*custos:g	*	*	*	*	*
!	!	!	!	!	!LO:LB:g=original	!	!	!	!	!
1r	.	.	.	.	2.g\	ma-	2cc\	-mi-	.	.
.	.	4c/	-li-	.	.	.	.	.	4ee\	-li-
*	*	*	*	*	*	*	*	*	*custos:dd	*
!	!	!	!	!	!	!	!	!	!LO:LB:g=original	!
.	.	2G/	-ter	.	.	.	2b-\	-li-	2.dd\	-ter
.	.	.	.	.	4f\	.	.	.	.	.
=58-	=58-	=58-	=58-	=58-	=58-	=58-	=58-	=58-	=58-	=58-
0r	.	1A	ma-	0ryy	2e\	.	2a\	-ter	.	.
.	.	.	.	.	.	.	.	.	4cc\	.
.	.	.	.	.	4d\	.	2f\	.	1cc	.
.	.	.	.	.	4c/	.	.	.	.	.
*	*	*	*	*	*	*	*lig	*	*	*
.	.	1G	-la	.	1d	.	1g	ma-	.	.
!	!	!	!	!	!	!	!	!	!LO:N:acc=#	!
.	.	.	.	.	.	.	.	.	2bn/	ma-
=59-	=59-	=59-	=59-	=59-	=59-	=59-	=59-	=59-	=59-	=59-
*	*	*	*	*	*	*	*col	*	*	*
1r	.	2r	.	0ryy	1c	-la	2.e\	.	0cc	-la
.	.	2g\	et	.	.	.	.	.	.	.
*	*	*	*	*	*	*	*Xlig	*	*	*
.	.	.	.	.	.	.	4f\	.	.	.
*	*	*	*	*	*	*	*Xcol	*	*	*
2r	.	2.eny\	La-	.	1c	et	1g	.	.	.
2c\	et	.	.	.	.	.	.	.	.	.
.	.	4e\	-za-	.	.	.	.	.	.	.
*	*	*custos:c	*	*	*	*	*	*	*	*
!	!	!LO:LB:g=original	!	!	!	!	!	!	!	!
=60-	=60-	=60-	=60-	=60-	=60-	=60-	=60-	=60-	=60-	=60-
2.A\	La-	1.c	-rus	0ryy	2e\	La-	1a	-la	2r	.
.	.	.	.	.	2e\	-za-	.	.	2cc\	et
4A\	-za-	.	.	.	.	.	.	.	.	.
1F	-rus	.	.	.	1f	-rus	2r	.	2.a/	La-
.	.	2c/	ſi-	.	.	.	2cc\	et	.	.
.	.	.	.	.	.	.	.	.	4a/	-za-
=61-	=61-	=61-	=61-	=61-	=61-	=61-	=61-	=61-	=61-	=61-
2r	.	2d\	-mi-	0ryy	2r	.	2.a\	La-	1f	-rus
*	*ij	*	*	*	*	*ij	*	*	*	*
2F/	et	2c/	-li-	.	1f	et	.	.	.	.
.	.	.	.	.	.	.	4a\	-za-	.	.
2.D/	La-	2d\	-ter	.	.	.	1.f	-rus	2r	.
*	*	*	*	*	*	*	*	*	*	*ij
.	.	2A/	ma-	.	2.d\	La-	.	.	2ff\	et
4D/	-za-	.	.	.	.	.	.	.	.	.
=62-	=62-	=62-	=62-	=62-	=62-	=62-	=62-	=62-	=62-	=62-
1BB-	-rus	2B-y/	-la	0ryy	.	.	.	.	2.dd\	La-
.	.	.	.	.	4d\	-za-	.	.	.	.
.	.	2f\	et	.	2B-/	-rus	2b-\	ſi-	.	.
.	.	.	.	.	.	.	.	.	4dd\	-za-
*custos:F	*Xij	*	*	*	*	*	*	*	*	*
!LO:LB:g=original	!	!	!	!	!	!	!	!	!	!
2F/	ſi-	1.f	La-	.	2r	.	1.a	-mi-	0cc	-rus
2.F/	-mi-	.	.	.	2c/	et	.	.	.	.
*	*	*	*	*	*	*	*	*	*	*Xij
=63-	=63-	=63-	=63-	=63-	=63-	=63-	=63-	=63-	=63-	=63-
.	.	.	.	0ryy	2.A/	La-	.	.	.	.
4F/	-li-	.	.	.	.	.	.	.	.	.
2C/	-ter	2e\	-za-	.	.	.	2cc\	-li-	.	.
.	.	.	.	.	4A/	-za-	.	.	.	.
1D	ma-	1d	-rus	.	1F	-rus	4b-\	-ter	2r	.
.	.	.	.	.	.	.	4a\	.	.	.
.	.	.	.	.	.	.	4a\	.	1ff\	ſi-
.	.	.	.	.	.	.	8g\	.	.	.
.	.	.	.	.	.	.	8f\	.	.	.
*	*	*	*	*	*	*Xij	*	*	*	*
=64-	=64-	=64-	=64-	=64-	=64-	=64-	=64-	=64-	=64-	=64-
00C	-la.	2r	.	0ryy	2c/	ſi-	1g	.	.	.
.	.	1g	ſi-	.	2.c/	-mi-	.	.	2.ee\	-mi-
.	.	.	.	.	.	.	2e/	ma-	.	.
.	.	.	.	.	4c/	-li-	.	.	4ee\	-li-
*	*	*	*	*	*	*	*lig	*	*	*
.	.	2.e\	-mi-	.	2G/	-ter	1g\	.	2cc\	-ter
=65-	=65-	=65-	=65-	=65-	=65-	=65-	=65-	=65-	=65-	=65-
*	*	*	*	*	*lig	*	*	*	*	*
.	.	.	.	0ryy	1A	ma-	.	.	0cc	ma-
.	.	4e\	-li-	.	.	.	.	.	.	.
.	.	2f\	-ter	.	.	.	1f	.	.	.
.	.	2g\	ma-	.	1G	.	.	.	.	.
*	*	*	*	*	*Xlig	*	*Xlig	*	*	*
.	.	2c/	.	.	.	.	2e/	.	.	.
=66-	=66-	=66-	=66-	=66-	=66-	=66-	=66-	=66-	=66-	=66-
00F	.	00c	-la.	00ryy	00F	-la.	00f	-la.	00a	-la.
==	==	==	==	==	==	==	==	==	==	==
*-	*-	*-	*-	*-	*-	*-	*-	*-	*-	*-
!!!system-decoration: [(s1,s2,s3,s4,s5,s6)]
!!!ENC: Mateusz Solarz
!!!END: 2022-07-13
!!!ENC: Natalia Wrzos
!!!END: 2022-08-09
